Delta/apps/scalable/skype.svg

<svg xmlns="http://www.w3.org/2000/svg" width="192" height="192" viewBox="0 0 192 192">
  <g fill="none" fill-rule="evenodd">
    <circle cx="96" cy="96" r="77" fill="#9ABEFF"/>
    <path fill="#FFF" d="M129.299986,116.777916 C129.299986,81.4110273 85.3303395,90.1730944 85.3303395,73.604822 C85.3303395,68.1882714 89.4724076,65.6393065 94.5703376,65.6393065 C99.9868882,65.6393065 101.930914,68.2832356 101.930914,68.2832356 C106.488276,71.3982359 113.416663,70.8365236 117.418264,67.0168138 L116.96654,67.4480054 C120.962605,63.6335796 120.553883,57.9464852 115.909671,54.9651808 C115.909671,54.9651808 106.518611,47 94.7296479,47 C79.5951683,47 64.1420681,56.0806878 64.1420681,75.1979252 C64.1420681,107.697229 108.271024,99.8910234 108.271024,116.618606 C108.271024,121.875846 103.810336,125.380673 96.4820614,125.380673 C87.7199942,125.380673 84.5204595,119.894188 84.5204595,119.894188 C80.5685111,116.061487 73.5647734,115.325143 68.8858895,118.24408 L68.4789345,118.49796 C63.7961483,121.419331 62.6049321,127.433095 66.257834,131.570038 C66.257834,131.570038 72.7518484,145.135155 96.322751,145.135152 C114.165506,145.135152 129.299986,134.620671 129.299986,116.777916 Z"/>
    <circle cx="147.5" cy="147.5" r="24.5" fill="#9ABEFF"/>
    <circle cx="44.5" cy="44.5" r="24.5" fill="#9ABEFF"/>
  </g>
</svg>

<svg width="192" height="192" version="1.1" viewBox="0 0 192 192" xmlns="http://www.w3.org/2000/svg">
 <circle cx="96" cy="96" r="77" style="fill-rule:evenodd;fill:#9abeff"/>
 <path d="m129.3 116.78c0-35.367-43.97-26.605-43.97-43.173 0-5.4166 4.1421-7.9655 9.24-7.9655 5.4166 0 7.3606 2.6439 7.3606 2.6439 4.5574 3.115 11.486 2.5533 15.487-1.2664l-0.45172 0.43119c3.9961-3.8144 3.5873-9.5015-1.0569-12.483 0 0-9.3911-7.9652-21.18-7.9652-15.134 0-30.588 9.0807-30.588 28.198 0 32.499 44.129 24.693 44.129 41.421 0 5.2572-4.4607 8.7621-11.789 8.7621-8.7621 0-11.962-5.4865-11.962-5.4865-3.9519-3.8327-10.956-4.569-15.635-1.6501l-0.40696 0.25388c-4.6828 2.9214-5.874 8.9351-2.2211 13.072 0 0 6.494 13.565 30.065 13.565 17.843 0 32.977-10.514 32.977-28.357z" style="fill-rule:evenodd;fill:#fff"/>
 <circle cx="147.5" cy="147.5" r="24.5" style="fill-rule:evenodd;fill:#9abeff"/>
 <circle cx="44.5" cy="44.5" r="24.5" style="fill-rule:evenodd;fill:#9abeff"/>
</svg>
